X: 180
%
U:~=!turn!
T: Fight about the Fireside
C:
O:Scotland
B:Keith Norman MacDonald : "The Skye collection of the best reels & strathspeys extant" : 1887
Z:Ralph Palmer
R:Reel
M:C|
L:1/8
K:C
c !segno!| GcEc Ad(dc) | GcEc GcEc | FcEc Ed(dB) | {AB}cGAF ECC :|
f | ecgc eddf | ecgc acgc | fage {/^c}d=cde | {/^F}GA{/B}cd Te2 (df) |
ecgc eddf | ecgc acge | fage {/^c}d=cde | {/^F}GA{/B}cd {/f}e2 (dc) !segno!|]


